!! 00000] TT[WS
!!!OTL: Zhen hunhun genshang ni zoule
!!!ARE: Asia, China,ÿShanxi Hequ
!! Ethnic Group: Han
!! WI, 6
!!!SCT: J0006
!!!YEM: Copyright 1995, estate of Helmut Schaffrath.
**kern
*ICvox
*Ivox
*M2/4
*k[b-e-]
*B-:
{8ddd
4ddd
8bb-
=1
8bb-
8bb-
8aa
8gg
=2
8ff
8gg
8ddd
8ff
=3
2dd}
=4
{8ccc
4ccc
8bb-
=5
8.bb-
16bb-
8aa
8gg
=6
8ff
8gg
8ddd
8ff
=7
2gg}
==
!!!AGN: Shange, Shanqu. Qingge
!!!ONB: ESAC (Essen Associative Code) Database: CHINA
!!!AMT: simple duple
!!!AIN: vox
!!!EED: Helmut Schaffrath
!!!EEV: 1.0
*-
